Yaru++/mimetypes/16/application-x-executable.svg

<svg height="16" viewBox="0 0 4.233125 4.233125" width="16" xmlns="http://www.w3.org/2000/svg" xmlns:xlink="http://www.w3.org/1999/xlink"><linearGradient id="a" gradientTransform="matrix(0 .26457031 -.26457031 0 66.671811 -84.662584)" gradientUnits="userSpaceOnUse" x1="321.00031" x2="335.00031" y1="244.00034" y2="244.00034"><stop offset="0" stop-color="#fff"/><stop offset=".125" stop-color="#fff" stop-opacity=".098039"/><stop offset=".92500001" stop-color="#fff" stop-opacity=".098039"/><stop offset="1" stop-color="#fff" stop-opacity=".498039"/></linearGradient><linearGradient id="b" gradientTransform="matrix(0 .26457031 -.26457031 0 66.671811 -84.662584)" gradientUnits="userSpaceOnUse" x1="320.00031" x2="336.00031" y1="247.00034" y2="241.00034"><stop offset="0" stop-color="#f2f2f2"/><stop offset="1" stop-color="#f9f9f9"/></linearGradient><path d="m1.0923056.26457034c-.99043745 0-1.09700902.0817496-1.09215415.87924916v1.1050282 1.1050255c-.004842.7975023.1017167.8792518 1.09215415.8792518h2.0486605c.9904454 0 1.0921594-.081739 1.0921594-.8792518v-1.1050255-1.1050282c0-.79751281-.1017167-.87924916-1.0921594-.87924916z" opacity=".1"/><path d="m1.1655969.13228518c-.91965699 0-1.01861157.0817496-1.0141033.87924922v1.1050281 1.1050256c-.004498.7975022.0944463.8792518 1.0141033.8792518h1.9022499c.9196596 0 1.0141059-.081739 1.0141059-.8792518v-1.1050256-1.1050281c0-.79751022-.094449-.87924922-1.0141059-.87924922z" fill="url(#b)"/><path d="m1.1758675.13228285c-.8826106 0-1.04357589.0798942-1.04357589.85968996v1.12460729.1391764c.001368.0000356.002573-.0000616.003955 0 .003681.0002725.007335.0004101.0110293.0006853.003859.0002725.007595.0006852.0117135.0011l-.00041061-.0004101c.0243548.00144.0488219.00224.0733724.00241l-.00013684.0001369c.001546-.0000712.002969.0000355.004475 0 .006486.0000191.0127946-.0000876.0192904-.0001369.0976205.0023.11090909.04564.14898354.1393489l.0191181.051503c.0525453.1459274.0969021.1403003.2206345.1098928.12437691-.027647.16680291-.042268.14915596-.1963622l-.005857-.054602c-.007458-.1008757-.0148157-.1456466.0716496-.1910238.005843-.00282.0117683-.00572.0175691-.00862.001368-.0006853.002437-.00123.00379-.0019h.00013683c.0218794-.01103.0432703-.022723.0644162-.034793l-.00013686.0004101c.003503-.00219.006828-.00389.0101672-.00586.003202-.00186.006281-.0038.009469-.00568.086423-.04759.11949447-.016535.19962137.045818l.04237.034967c.1184655.1001024.1541726.073045.2461252-.015159.093892-.086137.1231549-.1199659.03083-.2445927l-.032208-.04444c-.0612509-.0900551-.0900749-.1236716-.0201509-.2210002l-.00224.0011c.014136-.02147.02768-.04326.040648-.065455v.00241c.056197-.1058511.099155-.09504.2070251-.080095l.054082.00931c.1526396.027444.1699403-.013894.205475-.1362612.038247-.1215451.046674-.1656031-.095591-.2273664l-.0501207-.0222199c-.0914257-.0441524-.1338257-.0600691-.1295207-.15864025.0002725-.003681.0004101-.007335.0006852-.0110299.0002725-.003859.0005477-.007609.0008202-.0117141l-.0001368.00041008c.00144-.0243.00242-.0487122.00259-.0732051v-.00013686c-.0000575-.001479.0000342-.002847 0-.004297.0000177-.006486-.0000876-.0129732-.0001369-.0194652.0023-.0976278.045634-.11091708.1393377-.14899346l.051499-.0189465c.1459153-.05255074.1404595-.09708223.1100563-.22082232-.0276459-.12438599-.0424383-.16664308-.1965219-.14899526l-.054599.005693c-.1008678.007458-.1456351.0148164-.1910086-.0716546-.00282-.005843-.00554-.0116047-.00844-.0173974-.0006853-.001368-.00145-.002436-.00207-.003791v-.00013686c-.01081-.021407-.022157-.0424884-.033952-.0632029z" fill="#aea795"/><path d="m2.8960409 1.3211522c-.163078-.00182-.2201323.00423-.2430721.201427l-.00872.069691c-.020128.1278961-.023946.1858304-.1449427.2171698-.0081.00181-.016257.00365-.024325.00557-.0019.0004101-.00359.0008201-.00554.00123l.0002725.0000889c-.030548.00738-.060754.015571-.09069.024464l.0004101-.0004101c-.00499.00171-.00955.00308-.014289.00457-.00453.00138-.00909.0027-.013602.00412-.1215844.0341114-.1537364-.0141136-.2354206-.1151931l-.04249-.056023c-.0592288-.0796543-.101882-.1136472-.1473308-.1173393-.00568-.0004101-.011467-.0004101-.017266 0-.040632.00319-.085178.028137-.1465698.0645-.1421351.079974-.1884815.1136779-.1097545.2959285l.027231.064742c.050079.1300953.076119.1804141-.03941.2813253l.00308-.0006852c-.023879.022635-.047121.045916-.069756.069796l.0006853-.00308c-.1009064.1155386-.1512213.0894979-.2813072.0394132l-.064738-.027301c-.05695-.024604-.099363-.036968-.1332496-.03803-.074548-.00234-.10764549.050101-.16262383.1478266-.08311.1403328-.10646315.1927562.0528354.3112224l.0559841.042458c.101073.081691.1492956.1138801.1151868.2354758-.00142.00452-.00274.00903-.00412.013562-.00148.00474-.00279.00929-.0045.014292l.0004101-.0002645c-.00889.029935-.017094.060144-.024463.090696l-.00003557-.0002645c-.0004101.00196-.0008201.00363-.00123.00554-.00192.00807-.00375.016147-.00557.024258-.031336.121006-.089198.1248938-.21708629.1450226l-.0696873.00872c-.1971842.022941-.20322434.079998-.20141119.2430875-.00182.1630906.004228.2201161.20141119.2430546l.0696873.00876c.12788829.020129.18574989.023981.21708629.1449885.00181.0081.00365.016189.00557.024256.0004101.0019.0008201.00361.00123.00557l.0000356-.0002646c.00697.028862.014714.057432.023044.085747h.5227841a1.3303298 1.3304245 0 0 1 -.1038369-.512164 1.3303298 1.3304245 0 0 1 1.3303359-1.3304311 1.3303298 1.3304245 0 0 1 1.204563.7693036v-.8132494c-.048202-.062902-.032917-.1127991 0-.1984163v-.3487116c-.019988-.013288-.043612-.026903-.070828-.042216-.070161-.041558-.1183862-.068194-.1638349-.064502-.045449.00369-.088136.037685-.1473662.1173411l-.04249.055988c-.081684.1010796-.1138362.1493401-.2354242.1152296-.00452-.00142-.00907-.00274-.013602-.00412-.00474-.00148-.00929-.00279-.014289-.0045l.0004233.0004101c-.029935-.0089-.060174-.017095-.090724-.024466l.0002645-.0000343c-.00196-.00041-.00364-.0008201-.00554-.00123-.00807-.00192-.016181-.00375-.02429-.00557-.1210048-.0313405-.1248554-.0892406-.1449847-.2171381l-.00872-.069655c-.0229324-.1972109-.0799907-.2033089-.2430689-.2014956z" fill="#c8c4b7" opacity=".9"/><path d="m3.0570999 4.1008372c.8828844 0 1.0482831-.079932 1.0436452-.8597106v-1.1245561-1.12457996c.00463-.77977867-.1607608-.859708-1.0436452-.859708h-1.881161c-.88266472 0-1.04364781.0799214-1.04364781.859708v1.12457996 1.1245561c0 .7797892.16098309.8597106 1.04364781.8597106z" fill="none" opacity=".4" stroke="#000" stroke-width=".26457"/><path d="m1.176103.26456769c-.43734004 0-.67360662.0331983-.77148969.10954799-.0489429.0381748-.0806384.087631-.10489949.18602732-.0242637.0983963-.0351376.24159767-.0351376.43199305v1.12442385 1.1244238c0 .1903954.0108738.3335756.0351376.4319931.0242611.098396.0559566.1478525.10489949.1860273.0978831.07635.33414965.109548.77148969.109548h1.8809308c.4374485 0 .6751913-.0331.7735586-.109548.049181-.038225.0809-.087859.1048968-.1860273.023996-.098169.03413-.2407034.033071-.4309586v-.0005291-1.1249292-1.12493976-.00052914c.0010586-.19025516-.0090745-.33278977-.033071-.43095858-.0239965-.09816882-.0557158-.14780221-.1048968-.18602733-.0983646-.07643436-.3361101-.1095374-.7735586-.1095374zm1.409665.27697337c.2930565-.00008995.5856607.002117.8784553.0118792.070418.0158478.2003777-.005503.2097964.091462.035466.48796814.017514.97566654.02687 1.46547084-.00333.4940718.014366.971055-.027386 1.4546208.016986.1119503-.116268.094126-.1860273.1116143-.9082089.0185993-1.8191245.0155832-2.72476453.0005291-.05896743-.0105299-.1471593-.0000847-.18809097-.0496069-.0525516-.2989513-.03358985-.6004318-.04237358-.9048093.00365107-.6763687-.00767254-1.3512347.02375841-2.02561651-.00793711-.07214832.02895457-.1313036.10593131-.12918703.34568496-.0425958.69652106-.0168267 1.04433046-.0258221.292927.001587.5864333-.00052914.8794899-.00052914z" fill="url(#a)"/></svg>

<?xml version="1.0" encoding="UTF-8" standalone="no"?>
<svg
   xmlns:dc="http://purl.org/dc/elements/1.1/"
   xmlns:cc="http://creativecommons.org/ns#"
   xmlns:rdf="http://www.w3.org/1999/02/22-rdf-syntax-ns#"
   xmlns:svg="http://www.w3.org/2000/svg"
   xmlns="http://www.w3.org/2000/svg"
   xmlns:xlink="http://www.w3.org/1999/xlink"
   xmlns:sodipodi="http://sodipodi.sourceforge.net/DTD/sodipodi-0.dtd"
   xmlns:inkscape="http://www.inkscape.org/namespaces/inkscape"
   height="16"
   viewBox="0 0 4.233125 4.233125"
   width="16"
   version="1.1"
   id="svg33"
   sodipodi:docname="application-x-executable16.svg"
   inkscape:version="0.92.5 (2060ec1f9f, 2020-04-08)">
  <metadata
     id="metadata39">
    <rdf:RDF>
      <cc:Work
         rdf:about="">
        <dc:format>image/svg+xml</dc:format>
        <dc:type
           rdf:resource="http://purl.org/dc/dcmitype/StillImage" />
        <dc:title></dc:title>
      </cc:Work>
    </rdf:RDF>
  </metadata>
  <defs
     id="defs37">
    <linearGradient
       inkscape:collect="always"
       xlink:href="#linearGradient927"
       id="linearGradient1692-6"
       x1="321.00031"
       y1="244.00034"
       x2="335.00031"
       y2="244.00034"
       gradientUnits="userSpaceOnUse"
       gradientTransform="matrix(0,0.26457031,-0.26457031,0,66.671811,-84.662584)" />
    <linearGradient
       inkscape:collect="always"
       id="linearGradient927">
      <stop
         style="stop-color:#ffffff;stop-opacity:1;"
         offset="0"
         id="stop923" />
      <stop
         id="stop933"
         offset="0.125"
         style="stop-color:#ffffff;stop-opacity:0.09803922" />
      <stop
         id="stop931"
         offset="0.92500001"
         style="stop-color:#ffffff;stop-opacity:0.09803922" />
      <stop
         style="stop-color:#ffffff;stop-opacity:0.49803922"
         offset="1"
         id="stop925" />
    </linearGradient>
    <linearGradient
       inkscape:collect="always"
       xlink:href="#linearGradient4338"
       id="linearGradient1692"
       x1="320.00031"
       y1="247.00034"
       x2="336.00031"
       y2="241.00034"
       gradientUnits="userSpaceOnUse"
       gradientTransform="matrix(0,0.26457031,-0.26457031,0,66.671811,-84.662584)" />
    <linearGradient
       inkscape:collect="always"
       id="linearGradient4338">
      <stop
         style="stop-color:#f2f2f2;stop-opacity:1"
         offset="0"
         id="stop4340" />
      <stop
         style="stop-color:#f9f9f9;stop-opacity:1"
         offset="1"
         id="stop4342" />
    </linearGradient>
  </defs>
  <sodipodi:namedview
     pagecolor="#ffffff"
     bordercolor="#666666"
     borderopacity="1"
     objecttolerance="10"
     gridtolerance="10"
     guidetolerance="10"
     inkscape:pageopacity="0"
     inkscape:pageshadow="2"
     inkscape:window-width="1920"
     inkscape:window-height="1016"
     id="namedview35"
     showgrid="false"
     inkscape:zoom="14.75"
     inkscape:cx="-16.40678"
     inkscape:cy="8"
     inkscape:window-x="0"
     inkscape:window-y="27"
     inkscape:window-maximized="1"
     inkscape:current-layer="svg33" />
  <linearGradient
     id="a"
     gradientUnits="userSpaceOnUse"
     x1="328"
     x2="328"
     y1="237"
     y2="251">
    <stop
       offset="0"
       stop-color="#fff"
       id="stop2" />
    <stop
       offset=".125"
       stop-color="#fff"
       stop-opacity=".098039"
       id="stop4" />
    <stop
       offset=".92500001"
       stop-color="#fff"
       stop-opacity=".098039"
       id="stop6" />
    <stop
       offset="1"
       stop-color="#fff"
       stop-opacity=".498039"
       id="stop8" />
  </linearGradient>
  <clipPath
     id="b">
    <path
       d="m325.09646 237c-2.80769 0-3.10979.28839-3.09603 3.10176v3.89824 3.89824c-.0138 2.81337.28834 3.10176 3.09603 3.10176h5.8075c2.8077 0 3.09604-.28835 3.09604-3.10176v-3.89824-3.89824c0-2.8134-.28835-3.10176-3.09604-3.10176z"
       id="path11" />
  </clipPath>
  <linearGradient
     id="c"
     gradientTransform="matrix(0 -.00953618 .00953591 0 -.942983 4.473639)"
     gradientUnits="userSpaceOnUse"
     x1="459.03448"
     x2="35.310345"
     y1="419.23337"
     y2="207.36522">
    <stop
       offset="0"
       stop-color="#f2f2f2"
       id="stop14" />
    <stop
       offset="1"
       stop-color="#f9f9f9"
       id="stop16" />
  </linearGradient>
  <path
     style="color:#000000;display:inline;overflow:visible;visibility:visible;opacity:0.1;fill:#000000;fill-opacity:1;fill-rule:nonzero;stroke:none;stroke-width:0.26457033;marker:none;enable-background:accumulate"
     d="m 1.0923056,0.26457034 c -0.99043745,0 -1.09700902,0.0817496 -1.09215415242,0.87924916 V 2.2488477 3.3538732 C -0.00469055,4.1513755 0.10186815,4.233125 1.0923056,4.233125 h 2.0486605 c 0.9904454,0 1.0921594,-0.081739 1.0921594,-0.8792518 V 2.2488477 1.1438195 c 0,-0.79751281 -0.1017167,-0.87924916 -1.0921594,-0.87924916 z"
     id="path918-2"
     inkscape:connector-curvature="0"
     sodipodi:nodetypes="scccssscsss" />
  <path
     style="color:#000000;display:inline;overflow:visible;visibility:visible;fill:url(#linearGradient1692);fill-opacity:1;fill-rule:nonzero;stroke:none;stroke-width:0.26457033;marker:none;enable-background:accumulate"
     d="m 1.1655969,0.13228518 c -0.91965699,0 -1.01861157,0.0817496 -1.0141033,0.87924922 v 1.1050281 1.1050256 c -0.004498,0.7975022 0.0944463,0.8792518 1.0141033,0.8792518 h 1.9022499 c 0.9196596,0 1.0141059,-0.081739 1.0141059,-0.8792518 V 2.1165625 1.0115344 c 0,-0.79751022 -0.094449,-0.87924922 -1.0141059,-0.87924922 z"
     id="path918"
     inkscape:connector-curvature="0"
     sodipodi:nodetypes="scccssscsss" />
  <path
     inkscape:connector-curvature="0"
     style="color:#000000;display:inline;overflow:visible;visibility:visible;opacity:1;fill:#aea795;fill-opacity:1;fill-rule:nonzero;stroke:none;stroke-width:0.01771631;marker:none;enable-background:accumulate"
     d="m 1.1758675,0.13228285 c -0.8826106,0 -1.04357589,0.0798942 -1.04357589,0.85968996 V 2.1165801 2.2557565 c 0.001368,3.56e-5 0.002573,-6.16e-5 0.003955,0 0.003681,2.725e-4 0.007335,4.101e-4 0.0110293,6.853e-4 0.003859,2.725e-4 0.007595,6.852e-4 0.0117135,0.0011 L 0.1585788,2.2571317 c 0.0243548,0.00144 0.0488219,0.00224 0.0733724,0.00241 l -1.3684e-4,1.369e-4 c 0.001546,-7.12e-5 0.002969,3.55e-5 0.004475,0 0.006486,1.91e-5 0.0127946,-8.76e-5 0.0192904,-1.369e-4 0.0976205,0.0023 0.11090909,0.04564 0.14898354,0.1393489 l 0.0191181,0.051503 C 0.4762267,2.596321 0.5205835,2.5906939 0.6443159,2.5602864 0.76869281,2.5326394 0.81111881,2.5180184 0.79347186,2.3639242 l -0.005857,-0.054602 c -0.007458,-0.1008757 -0.0148157,-0.1456466 0.0716496,-0.1910238 0.005843,-0.00282 0.0117683,-0.00572 0.0175691,-0.00862 0.001368,-6.853e-4 0.002437,-0.00123 0.00379,-0.0019 0,0 1.3683e-4,0 1.3683e-4,0 0.0218794,-0.01103 0.0432703,-0.022723 0.0644162,-0.034793 l -1.3686e-4,4.101e-4 c 0.003503,-0.00219 0.006828,-0.00389 0.0101672,-0.00586 0.003202,-0.00186 0.006281,-0.0038 0.009469,-0.00568 0.086423,-0.04759 0.11949447,-0.016535 0.19962137,0.045818 l 0.04237,0.034967 c 0.1184655,0.1001024 0.1541726,0.073045 0.2461252,-0.015159 0.093892,-0.086137 0.1231549,-0.1199659 0.03083,-0.2445927 l -0.032208,-0.04444 C 1.3901636,1.7483937 1.3613396,1.7147772 1.4312636,1.6174486 l -0.00224,0.0011 c 0.014136,-0.02147 0.02768,-0.04326 0.040648,-0.065455 v 0.00241 c 0.056197,-0.1058511 0.099155,-0.09504 0.2070251,-0.080095 l 0.054082,0.00931 C 1.8834183,1.5121626 1.900719,1.4708246 1.9362537,1.3484574 1.9745007,1.2269123 1.9829277,1.1828543 1.8406627,1.121091 L 1.790542,1.0988711 C 1.6991163,1.0547187 1.6567163,1.038802 1.6610213,0.94023085 c 2.725e-4,-0.003681 4.101e-4,-0.007335 6.852e-4,-0.0110299 2.725e-4,-0.003859 5.477e-4,-0.007609 8.202e-4,-0.0117141 l -1.368e-4,4.1008e-4 c 0.00144,-0.0243 0.00242,-0.0487122 0.00259,-0.0732051 v -1.3686e-4 c -5.75e-5,-0.001479 3.42e-5,-0.002847 0,-0.004297 1.77e-5,-0.006486 -8.76e-5,-0.0129732 -1.369e-4,-0.0194652 0.0023,-0.0976278 0.045634,-0.11091708 0.1393377,-0.14899346 l 0.051499,-0.0189465 C 2.001595,0.60030207 1.9961392,0.55577058 1.965736,0.43203049 1.9380901,0.3076445 1.9232977,0.26538741 1.7692141,0.28303523 l -0.054599,0.005693 c -0.1008678,0.007458 -0.1456351,0.0148164 -0.1910086,-0.0716546 -0.00282,-0.005843 -0.00554,-0.0116047 -0.00844,-0.0173974 -6.853e-4,-0.001368 -0.00145,-0.002436 -0.00207,-0.003791 v -1.3686e-4 c -0.01081,-0.021407 -0.022157,-0.0424884 -0.033952,-0.0632029 z"
     id="path6431-6-2-2-9" />
  <path
     inkscape:connector-curvature="0"
     id="rect4158-0-7-9-7-3"
     d="m 2.8960409,1.3211522 c -0.163078,-0.00182 -0.2201323,0.00423 -0.2430721,0.201427 l -0.00872,0.069691 C 2.6241208,1.7201663 2.6203028,1.7781006 2.4993061,1.80944 c -0.0081,0.00181 -0.016257,0.00365 -0.024325,0.00557 -0.0019,4.101e-4 -0.00359,8.201e-4 -0.00554,0.00123 l 2.725e-4,8.89e-5 c -0.030548,0.00738 -0.060754,0.015571 -0.09069,0.024464 l 4.101e-4,-4.101e-4 c -0.00499,0.00171 -0.00955,0.00308 -0.014289,0.00457 -0.00453,0.00138 -0.00909,0.0027 -0.013602,0.00412 C 2.2299583,1.8831842 2.1978063,1.8349592 2.1161221,1.7338797 l -0.04249,-0.056023 C 2.0144033,1.5982024 1.9717501,1.5642095 1.9263013,1.5605174 c -0.00568,-4.101e-4 -0.011467,-4.101e-4 -0.017266,0 -0.040632,0.00319 -0.085178,0.028137 -0.1465698,0.0645 C 1.6203304,1.7049914 1.573984,1.7386953 1.652711,1.9209459 l 0.027231,0.064742 C 1.730021,2.1157832 1.756061,2.166102 1.640532,2.2670132 L 1.643612,2.266328 C 1.619733,2.288963 1.596491,2.312244 1.573856,2.336124 l 6.853e-4,-0.00308 C 1.4736349,2.4485826 1.42332,2.4225419 1.2932341,2.3724572 l -0.064738,-0.027301 c -0.05695,-0.024604 -0.099363,-0.036968 -0.1332496,-0.03803 -0.074548,-0.00234 -0.10764549,0.050101 -0.16262383,0.1478266 -0.08311,0.1403328 -0.10646315,0.1927562 0.0528354,0.3112224 l 0.0559841,0.042458 c 0.101073,0.081691 0.1492956,0.1138801 0.1151868,0.2354758 -0.00142,0.00452 -0.00274,0.00903 -0.00412,0.013562 -0.00148,0.00474 -0.00279,0.00929 -0.0045,0.014292 l 4.101e-4,-2.645e-4 c -0.00889,0.029935 -0.017094,0.060144 -0.024463,0.090696 L 1.1239205,3.16213 c -4.101e-4,0.00196 -8.201e-4,0.00363 -0.00123,0.00554 -0.00192,0.00807 -0.00375,0.016147 -0.00557,0.024258 -0.031336,0.121006 -0.089198,0.1248938 -0.21708629,0.1450226 l -0.0696873,0.00872 c -0.1971842,0.022941 -0.20322434,0.079998 -0.20141119,0.2430875 -0.00182,0.1630906 0.004228,0.2201161 0.20141119,0.2430546 l 0.0696873,0.00876 c 0.12788829,0.020129 0.18574989,0.023981 0.21708629,0.1449885 0.00181,0.0081 0.00365,0.016189 0.00557,0.024256 4.101e-4,0.0019 8.201e-4,0.00361 0.00123,0.00557 l 3.56e-5,-2.646e-4 c 0.00697,0.028862 0.014714,0.057432 0.023044,0.085747 H 1.6697842 A 1.3303298,1.3304245 0 0 1 1.5659473,3.5887056 1.3303298,1.3304245 0 0 1 2.8962832,2.2582745 1.3303298,1.3304245 0 0 1 4.1008462,3.0275781 V 2.2143287 c -0.048202,-0.062902 -0.032917,-0.1127991 0,-0.1984163 V 1.6672008 C 4.0808582,1.6539128 4.0572342,1.6402978 4.0300182,1.6249848 3.9598572,1.5834268 3.911632,1.5567908 3.8661833,1.5604828 c -0.045449,0.00369 -0.088136,0.037685 -0.1473662,0.1173411 l -0.04249,0.055988 C 3.5946431,1.8348915 3.5624909,1.883152 3.4409029,1.8490415 c -0.00452,-0.00142 -0.00907,-0.00274 -0.013602,-0.00412 -0.00474,-0.00148 -0.00929,-0.00279 -0.014289,-0.0045 l 4.233e-4,4.101e-4 c -0.029935,-0.0089 -0.060174,-0.017095 -0.090724,-0.024466 l 2.645e-4,-3.43e-5 c -0.00196,-4.1e-4 -0.00364,-8.201e-4 -0.00554,-0.00123 -0.00807,-0.00192 -0.016181,-0.00375 -0.02429,-0.00557 C 3.1721409,1.7781908 3.1682903,1.7202907 3.148161,1.5923932 L 3.139441,1.5227382 C 3.1165086,1.3255273 3.0594503,1.3194293 2.8963721,1.3212426 Z"
     style="color:#000000;display:inline;overflow:visible;visibility:visible;opacity:0.9;fill:#c8c4b7;fill-opacity:1;fill-rule:nonzero;stroke:none;stroke-width:0.01771631;marker:none;enable-background:accumulate" />
  <path
     style="color:#000000;display:inline;overflow:visible;visibility:visible;opacity:0.4;fill:none;fill-opacity:1;fill-rule:nonzero;stroke:#000000;stroke-width:0.26457033;stroke-miterlimit:4;stroke-dasharray:none;stroke-opacity:1;marker:none;enable-background:accumulate"
     d="m 3.0570999,4.1008372 c 0.8828844,0 1.0482831,-0.079932 1.0436452,-0.8597106 V 2.1165705 0.99199054 c 0.00463,-0.77977867 -0.1607608,-0.859708 -1.0436452,-0.859708 h -1.881161 c -0.88266472,0 -1.04364781,0.0799214 -1.04364781,0.859708 V 2.1165705 3.2411266 c 0,0.7797892 0.16098309,0.8597106 1.04364781,0.8597106 z"
     id="path958-6-0"
     inkscape:connector-curvature="0"
     sodipodi:nodetypes="scccssscsss" />
  <path
     style="color:#000000;display:inline;overflow:visible;visibility:visible;opacity:1;fill:url(#linearGradient1692-6);fill-opacity:1;fill-rule:nonzero;stroke:none;stroke-width:0.26457033;marker:none;enable-background:accumulate"
     d="m 1.176103,0.26456769 c -0.43734004,0 -0.67360662,0.0331983 -0.77148969,0.10954799 -0.0489429,0.0381748 -0.0806384,0.087631 -0.10489949,0.18602732 -0.0242637,0.0983963 -0.0351376,0.24159767 -0.0351376,0.43199305 V 2.1165599 3.2409837 c 0,0.1903954 0.0108738,0.3335756 0.0351376,0.4319931 0.0242611,0.098396 0.0559566,0.1478525 0.10489949,0.1860273 0.0978831,0.07635 0.33414965,0.109548 0.77148969,0.109548 h 1.8809308 c 0.4374485,0 0.6751913,-0.0331 0.7735586,-0.109548 0.049181,-0.038225 0.0809,-0.087859 0.1048968,-0.1860273 0.023996,-0.098169 0.03413,-0.2407034 0.033071,-0.4309586 V 3.2414891 2.1165599 0.99162014 0.991091 C 3.9696188,0.80083584 3.9594857,0.65830123 3.9354892,0.56013242 3.9114927,0.4619636 3.8797734,0.41233021 3.8305924,0.37410509 3.7322278,0.29767073 3.4944823,0.26456769 3.0570338,0.26456769 Z m 1.409665,0.27697337 c 0.2930565,-8.995e-5 0.5856607,0.002117 0.8784553,0.0118792 0.070418,0.0158478 0.2003777,-0.005503 0.2097964,0.091462 0.035466,0.48796814 0.017514,0.97566654 0.02687,1.46547084 -0.00333,0.4940718 0.014366,0.971055 -0.027386,1.4546208 0.016986,0.1119503 -0.116268,0.094126 -0.1860273,0.1116143 C 2.5792675,3.6951875 1.6683519,3.6921714 0.76271187,3.6771173 0.70374444,3.6665874 0.61555257,3.6770326 0.5746209,3.6275104 0.5220693,3.3285591 0.54103105,3.0270786 0.53224732,2.7227011 0.53589839,2.0463324 0.52457478,1.3714664 0.55600573,0.69708459 0.54806862,0.62493627 0.5849603,0.56578099 0.66193704,0.56789756 1.007622,0.52530176 1.3584581,0.55107086 1.7062675,0.54207546 c 0.292927,0.001587 0.5864333,-5.2914e-4 0.8794899,-5.2914e-4 z"
     id="path918-6"
     inkscape:connector-curvature="0" />
</svg>
